client/src/assets/icons/youtube-fill.svg

<svg width="30" height="30" viewBox="0 0 30 30" fill="none" xmlns="http://www.w3.org/2000/svg">
<g clip-path="url(#clip0_126_2481)">
<path fill-rule="evenodd" clip-rule="evenodd" d="M15 5C16.0688 5 17.165 5.0275 18.2275 5.0725L19.4825 5.1325L20.6838 5.20375L21.8088 5.28L22.8362 5.36C23.9515 5.44486 25.001 5.92054 25.7999 6.70325C26.5989 7.48596 27.096 8.52549 27.2038 9.63875L27.2537 10.17L27.3475 11.3075C27.435 12.4862 27.5 13.7712 27.5 15C27.5 16.2288 27.435 17.5138 27.3475 18.6925L27.2537 19.83L27.2038 20.3612C27.096 21.4747 26.5987 22.5144 25.7995 23.2971C25.0003 24.0799 23.9505 24.5554 22.835 24.64L21.81 24.7188L20.685 24.7962L19.4825 24.8675L18.2275 24.9275C17.1523 24.9741 16.0762 24.9982 15 25C13.9238 24.9982 12.8477 24.9741 11.7725 24.9275L10.5175 24.8675L9.31625 24.7962L8.19125 24.7188L7.16375 24.64C6.04852 24.5551 4.999 24.0795 4.20006 23.2967C3.40111 22.514 2.90399 21.4745 2.79625 20.3612L2.74625 19.83L2.6525 18.6925C2.55729 17.4639 2.50642 16.2323 2.5 15C2.5 13.7712 2.565 12.4862 2.6525 11.3075L2.74625 10.17L2.79625 9.63875C2.90395 8.52569 3.40089 7.48632 4.19958 6.70363C4.99827 5.92095 6.04749 5.44515 7.1625 5.36L8.18875 5.28L9.31375 5.20375L10.5163 5.1325L11.7712 5.0725C12.8469 5.02591 13.9234 5.00174 15 5ZM12.5 11.9688V18.0312C12.5 18.6088 13.125 18.9688 13.625 18.6812L18.875 15.65C18.9892 15.5842 19.0841 15.4895 19.1501 15.3754C19.2161 15.2613 19.2508 15.1318 19.2508 15C19.2508 14.8682 19.2161 14.7387 19.1501 14.6246C19.0841 14.5105 18.9892 14.4158 18.875 14.35L13.625 11.32C13.511 11.2542 13.3816 11.2195 13.2499 11.2195C13.1182 11.2195 12.9888 11.2542 12.8748 11.3201C12.7608 11.386 12.6661 11.4808 12.6003 11.5948C12.5345 11.7089 12.4999 11.8383 12.5 11.97V11.9688Z" fill="black"/>
</g>
<defs>
<clipPath id="clip0_126_2481">
<rect width="30" height="30" fill="white"/>
</clipPath>
</defs>
</svg>

<svg xmlns="http://www.w3.org/2000/svg" width="30" height="30" fill="none" viewBox="0 0 30 30">
  <g clip-path="url(#a)">
    <path fill="#fff" fill-rule="evenodd" d="M15 5c1.069 0 2.165.027 3.227.072l1.256.06 1.2.072 1.126.076 1.027.08a4.75 4.75 0 0 1 4.368 4.279l.05.531.093 1.137c.088 1.18.153 2.464.153 3.693s-.065 2.514-.152 3.692l-.094 1.138-.05.531a4.75 4.75 0 0 1-4.369 4.279l-1.025.079-1.125.077-1.202.072-1.256.06c-1.075.046-2.15.07-3.227.072a77.534 77.534 0 0 1-3.227-.073l-1.255-.06-1.202-.07-1.125-.078-1.027-.079a4.75 4.75 0 0 1-4.368-4.279l-.05-.531-.094-1.137A51.246 51.246 0 0 1 2.5 15c0-1.229.065-2.514.152-3.693l.094-1.137.05-.531A4.75 4.75 0 0 1 7.162 5.36l1.027-.08 1.125-.076 1.202-.071 1.255-.06A77.514 77.514 0 0 1 15 5Zm-2.5 6.969v6.062a.75.75 0 0 0 1.125.65l5.25-3.031a.75.75 0 0 0 0-1.3l-5.25-3.03a.75.75 0 0 0-1.125.65v-.001Z" clip-rule="evenodd"/>
  </g>
  <defs>
    <clipPath id="a">
      <path fill="#fff" d="M0 0h30v30H0z"/>
    </clipPath>
  </defs>
</svg>
